Newaita-dark/actions/16/format-text-blockquote.svg

<svg height="16" viewBox="0 0 16 16" width="16" xmlns="http://www.w3.org/2000/svg"><g fill="#e0e0e0"><path d="m5.292969 4.425781c-.664063 0-2.648438.660157-2.648438 3.636719 0 1.285156 1.035157 2.316406 2.316407 2.316406s2.316406-1.03125 2.316406-2.316406c0-1.28125-1.035156-2.316406-2.316406-2.316406-.660157 0-.660157-.660156.332031-1.320313zm0 0"/><path d="m11.246094 4.425781c-.660156 0-2.644532.660157-2.644532 3.636719 0 1.285156 1.03125 2.316406 2.3125 2.316406 1.285157 0 2.316407-1.03125 2.316407-2.316406 0-1.28125-1.03125-2.316406-2.316407-2.316406-.660156 0-.660156-.660156.332032-1.320313zm0 0"/></g></svg>

<?xml version="1.0" encoding="UTF-8"?>
<svg xmlns="http://www.w3.org/2000/svg" xmlns:xlink="http://www.w3.org/1999/xlink" width="16px" height="16px" viewBox="0 0 16 16" version="1.1">
<g id="surface1">
<path style=" stroke:none;fill-rule:nonzero;fill:rgb(87.843138%,87.843138%,87.843138%);fill-opacity:1;" d="M 5.292969 4.425781 C 4.628906 4.425781 2.644531 5.085938 2.644531 8.0625 C 2.644531 9.347656 3.679688 10.378906 4.960938 10.378906 C 6.242188 10.378906 7.277344 9.347656 7.277344 8.0625 C 7.277344 6.78125 6.242188 5.746094 4.960938 5.746094 C 4.300781 5.746094 4.300781 5.085938 5.292969 4.425781 Z M 5.292969 4.425781 "/>
<path style=" stroke:none;fill-rule:nonzero;fill:rgb(87.843138%,87.843138%,87.843138%);fill-opacity:1;" d="M 11.246094 4.425781 C 10.585938 4.425781 8.601562 5.085938 8.601562 8.0625 C 8.601562 9.347656 9.632812 10.378906 10.914062 10.378906 C 12.199219 10.378906 13.230469 9.347656 13.230469 8.0625 C 13.230469 6.78125 12.199219 5.746094 10.914062 5.746094 C 10.253906 5.746094 10.253906 5.085938 11.246094 4.425781 Z M 11.246094 4.425781 "/>
</g>
</svg>
